X: 25970
T: May Morning Dew, The
R: barndance
M: 4/4
K: Eminor
E2|A<e e2 e2 ag/f/|g<e e2 e2 e2|e<g B<A A2 A2|AG A2 A2 E2|
A<e e2 ef ga|a2 a2 a2 g<e|f<d d2 c2 d2|d2 d2 d2 E2|
A<e e2 e2 fg|a2 a2 a2 g<e|f<d d2 de f<d|g2 g2 g2 a2|
g<e =fe A<c c2|c2 c2 d<e a2|a2 a2 ed e<A|A2 AG A2 A2||
E|A<e e2 e2 e2|a2 g/f/g/a/ g<e e2|e<g B2 B2 AG|A2 A2 A2 A2|
ab c'2 c'2 c'2|ba b<e e2 e2|e/d/e/g/ g2 b<a a2 a2|a2 a2 a2 a2|
ab c'2 c'2 c'2|b2 b2 b2 g/a/b/a/|a2 g2 g2 g2 g2|b<a a2 g2 ed/c/|
B2 B2 B2 B2|E2 A<e e2 e2|ga a2 a2 a2|e2 =fe A2 A2|G2 A2 A2 A2||
E|Ae e2 e2 ag/f/|g<e e2 e2 e2|B>A A2 A2|G2 A2 A2 E2|
A<e e2 e2 fg|a2 a2 a2 g<e|f<d d2 c2 d2|d2 d2 d2 E2|
A<e e2 e2 f<g|a2 a2 a2 g<e|f<d d2 d2 d2|e<f gf/g/ g2 g2|
ag/e/ =f3e A<c|c2 c2 c2 e<a|=f2 =f2 =f2 ed|eA A2 A2 G2|A4 A4||

